X:376
%%etbk:tnset id:106,pos:2,rep:3x,ant:
%%etbk:tnset id:322,pos:3,rep:3x,ant:
%%etbk:wsite http://www.thesession.org/tunes/display/53
%%etbk:pldat 2016-05-25T15:31,2014-12-18T18:17,2014-09-04T18:56,2014-09-03T19:08,2014-09-02T18:58,2014-09-01T18:59,2014-08-31T14:21,2014-08-28T18:52,2014-08-27T19:06,2014-08-26T17:17,2014-08-24T14:53,2014-08-06T18:35,2014-07-31T18:14,2014-07-27T17:26,2014-02-10T18:42,2014-02-07T15:37,2014-02-06T18:03,2013-12-11T16:33,2013-11-27T18:55,2013-10-08T16:37,2013-10-04T17:28,2013-08-28T16:51,2013-05-06T18:27
T: O'Keefe's
Z: Piano Box Version by Martin Fleischmann
H: Created 2013-02-19 /  Last Modified 2013-02-19
M: 12/8
L: 1/8
R: slide
K: Ador
|: "am"!1!A2!5!e e2d !2!BAB !4!d2B | !1!A2!5!e e2!4!d "G"!3!B2!2!A !1!GA!3!B | "am"!1!A2!5!e e2d !2!BAB !4!d3 | "G"!2!BAB d2!5!e "am"!2!B{d}B!1!A A3:|
|: "am"!2!e2!4!a a2!5!b !4!a2!3!g !2!e2!1!d | !1!efg a2!5!b a2g !1!e2 !4!f | "G"!5!g3 gfe !2!d!1!B!2!A !1!G3 | !2!BAB d2!5!e "am"!2!B{d}B!1!A A3:|


